X:238
T:Walking in Liffey Street
R:jig
C:Paul O'Shaughnessy
D:Altan: Harvest Storm
Z:id:hn-jig-238
M:6/8
K:G
Bc|:dge def|gdc BAG|CEG DGB|BAG ABc|
[1 dge def|gdc BAG|CEG DGB|cAF GBc:|
[2 dge fga|gdc BAG|CEG DGB|cAF GFG||
|:~A3 ABc|BGB dBd|ecA dBG|1 AFD ABc|
AFF ABc|BGB dBd|ecA dBG|cAF GFG:|2 cBc A2G|
FGA cdc|BGB dgf|ece dBd|cAF G||

